public/cloud-icons/azure/networking/virtual-network-gateway.svg

<?xml version="1.0" encoding="UTF-8" standalone="no"?>
<!-- Generated by Microsoft Visio, SVG Export Virtual Network Gateway.svg Page-1 -->

<svg
   xmlns:dc="http://purl.org/dc/elements/1.1/"
   xmlns:cc="http://creativecommons.org/ns#"
   xmlns:rdf="http://www.w3.org/1999/02/22-rdf-syntax-ns#"
   xmlns:svg="http://www.w3.org/2000/svg"
   xmlns="http://www.w3.org/2000/svg"
   xmlns:sodipodi="http://sodipodi.sourceforge.net/DTD/sodipodi-0.dtd"
   xmlns:inkscape="http://www.inkscape.org/namespaces/inkscape"
   width="0.59048879in"
   height="0.78737938in"
   viewBox="0 0 42.515194 56.691425"
   xml:space="preserve"
   class="st5"
   version="1.1"
   id="svg50"
   sodipodi:docname="Virtual Network Gateway.svg"
   style="font-size:12px;overflow:visible;color-interpolation-filters:sRGB;fill:none;fill-rule:evenodd;stroke-linecap:square;stroke-miterlimit:3"
   inkscape:version="0.92.5 (2060ec1f9f, 2020-04-08)"><metadata
   id="metadata54"><rdf:RDF><cc:Work
       rdf:about=""><dc:format>image/svg+xml</dc:format><dc:type
         rdf:resource="http://purl.org/dc/dcmitype/StillImage" /></cc:Work></rdf:RDF></metadata><sodipodi:namedview
   pagecolor="#ffffff"
   bordercolor="#666666"
   borderopacity="1"
   objecttolerance="10"
   gridtolerance="10"
   guidetolerance="10"
   inkscape:pageopacity="0"
   inkscape:pageshadow="2"
   inkscape:window-width="640"
   inkscape:window-height="480"
   id="namedview52"
   showgrid="false"
   inkscape:zoom="1.4192955"
   inkscape:cx="28.34661"
   inkscape:cy="37.78566"
   inkscape:window-x="0"
   inkscape:window-y="0"
   inkscape:window-maximized="0"
   inkscape:current-layer="svg50" />
	<style
   type="text/css"
   id="style2">
	<![CDATA[
		.st1 {fill:url(#grad0-6);stroke:none;stroke-linecap:butt;stroke-width:34}
		.st2 {fill:#50e6ff;stroke:none;stroke-linecap:butt;stroke-width:34}
		.st3 {fill:#ffffff;fill-opacity:0.2;stroke:none;stroke-linecap:butt;stroke-width:34}
		.st4 {fill:#ffffff;stroke:none;stroke-linecap:butt;stroke-width:34}
		.st5 {fill:none;fill-rule:evenodd;font-size:12px;overflow:visible;stroke-linecap:square;stroke-miterlimit:3}
	]]>
	</style>

	<defs
   id="Patterns_And_Gradients">
		<linearGradient
   id="grad0-6"
   x1="0"
   y1="58.865231"
   x2="49.062387"
   y2="58.865231"
   gradientTransform="scale(0.86542874,1.1554966)"
   gradientUnits="userSpaceOnUse">
			<stop
   offset="0.22"
   stop-color="#32d4f5"
   stop-opacity="1"
   id="stop4" />
			<stop
   offset="0.47"
   stop-color="#31d1f3"
   stop-opacity="1"
   id="stop6" />
			<stop
   offset="0.63"
   stop-color="#2ec9eb"
   stop-opacity="1"
   id="stop8" />
			<stop
   offset="0.77"
   stop-color="#29bade"
   stop-opacity="1"
   id="stop10" />
			<stop
   offset="0.89"
   stop-color="#22a5cb"
   stop-opacity="1"
   id="stop12" />
			<stop
   offset="1"
   stop-color="#198ab3"
   stop-opacity="1"
   id="stop14" />
			<stop
   offset="1"
   stop-color="#198ab3"
   stop-opacity="1"
   id="stop16" />
		</linearGradient>
	</defs>
	<g
   id="g48"
   transform="translate(-34.000107,-34.002876)">
		<title
   id="title20">Page-1</title>
		<g
   id="group18770-1"
   transform="translate(34,-34.0157)">
			<title
   id="title22">Virtual Network Gateway.18770</title>
			<g
   id="group18771-2">
				<title
   id="title24">Icon-networking-63</title>
				<g
   id="shape18772-3">
					<title
   id="title26">Sheet.18772</title>
					<path
   d="M 40.26,95.25 H 37.13 V 85.57 A 18.2182,18.2485 -180 0 0 32.45,73.26 15.0199,15.0448 -180 0 0 20.98,68.02 15.0199,15.0448 -180 0 0 9.38,73.26 17.9674,17.9973 -180 0 0 4.7,85.57 v 9.68 H 2.16 A 2.19497,2.19862 -180 0 0 0,97.42 v 25.12 a 2.19497,2.19862 -180 0 0 2.16,2.17 h 38.1 a 2.22633,2.23003 -180 0 0 2.2,-2.17 V 97.42 a 2.22633,2.23003 -180 0 0 -2.2,-2.17 z m -10.57,0 H 12.26 v -9.83 a 9.97143,9.988 0 0 1 2.73,-6.76 7.87053,7.88361 0 0 1 5.89,-2.7 7.9646,7.97784 0 0 1 5.93,2.7 10.0028,10.0194 0 0 1 1,1.36 9.40701,9.42264 0 0 1 1.92,5.37 z"
   class="st1"
   id="path28"
   inkscape:connector-curvature="0"
   style="fill:url(#grad0-6);stroke:none;stroke-width:34;stroke-linecap:butt" />
				</g>
				<g
   id="shape18773-7"
   transform="translate(0.815274,-0.659585)">
					<title
   id="title31">Sheet.18773</title>
					<path
   d="M 39.54,95.91 H 1.38 A 2.06954,2.07298 -180 0 0 0,96.44 l 40.92,28.27 a 2.1009,2.10439 -180 0 0 0.78,-1.63 V 97.95 a 2.22633,2.23003 -180 0 0 -2.16,-2.04 z"
   class="st2"
   id="path33"
   inkscape:connector-curvature="0"
   style="fill:#50e6ff;stroke:none;stroke-width:34;stroke-linecap:butt" />
				</g>
				<g
   id="shape18774-9"
   transform="translate(0.0627134,-0.659585)">
					<title
   id="title36">Sheet.18774</title>
					<path
   d="m 2.19,95.91 h 38.13 a 2.19497,2.19862 0 0 1 1.42,0.53 L 0.78,124.71 A 2.19497,2.19862 0 0 1 0,123.08 V 97.95 a 2.25768,2.26143 0 0 1 2.19,-2.04 z"
   class="st3"
   id="path38"
   inkscape:connector-curvature="0"
   style="fill:#ffffff;fill-opacity:0.2;stroke:none;stroke-width:34;stroke-linecap:butt" />
				</g>
				<g
   id="shape18775-11"
   transform="translate(5.39335,-2.38608)">
					<title
   id="title41">Sheet.18775</title>
					<path
   d="m 12.1,103.7 3.77,-3.77 a 0.219497,0.219862 0 0 1 0.28221,0 L 19.88,103.7 a 0.18814,0.188453 0 0 1 0,0.31409 l -2.19,-0.004 a 0.18814,0.188453 -180 0 0 -0.18814,0.18845 L 17.5,109.04 a 0.18814,0.188453 0 0 1 -0.18814,0.18845 L 14.83,109.22 a 0.156783,0.157044 0 0 1 -0.18814,-0.18845 L 14.64,104.2 a 0.219497,0.219862 -180 0 0 -0.219497,-0.18845 L 12.23,104.01 a 0.18814,0.188453 0 0 1 -0.125427,-0.31409 z m 7.75,17.21 -3.73,3.74 a 0.18814,0.188453 0 0 1 -0.28221,0 L 12.1,120.91 a 0.18814,0.188453 0 0 1 0,-0.31409 l 2.2,-0.006 a 0.219497,0.219862 -180 0 0 0.219497,-0.18845 L 14.52,115.54 a 0.18814,0.188453 0 0 1 0.18814,-0.18845 L 17.03,115.35 a 0.18814,0.188453 0 0 1 0.18814,0.18845 L 17.21,120.41 a 0.18814,0.188453 -180 0 0 0.18814,0.18845 L 19.6,120.59 a 0.20078151,0.20111551 0 0 1 0.250854,0.31409 z M 5.11,116.04 v -2.2 A 0.18814,0.188453 -180 0 0 4.92186,113.65155 L 0.19,113.65 A 0.18814,0.188453 0 0 1 0.00186,113.46155 L 0,111.23 a 0.18814,0.188453 0 0 1 0.18814,-0.28268 L 4.92,110.95 a 0.18814,0.188453 -180 0 0 0.18814,-0.18845 L 5.11,108.56 a 0.219497,0.219862 0 0 1 0.344924,-0.15704 L 9.19,112.18 a 0.18814,0.188453 0 0 1 0,0.25127 L 5.46,116.2 a 0.219497,0.219862 0 0 1 -0.344924,-0.15704 z m 21.73,-7.48 v 2.2 a 0.18814,0.188453 -180 0 0 0.18814,0.18845 L 31.86,110.95 c 0,0 0.22,0 0.22,0.19 v 2.32 a 0.219497,0.219862 0 0 1 -0.219497,0.18845 L 27.03,113.65 a 0.18814,0.188453 -180 0 0 -0.18814,0.18845 L 26.84,116.04 a 0.18814,0.188453 0 0 1 -0.313567,0.15704 L 22.8,112.43 v -0.25 l 3.73,-3.77 c 0,0 0.31,-0.03 0.31,0.15 z"
   class="st4"
   id="path43"
   inkscape:connector-curvature="0"
   style="fill:#ffffff;stroke:none;stroke-width:34;stroke-linecap:butt" />
				</g>
			</g>
		</g>
	</g>
</svg>

<svg xmlns="http://www.w3.org/2000/svg" xml:space="preserve" width="56.687" height="75.588" style="font-size:12px;overflow:visible;color-interpolation-filters:sRGB;fill-rule:evenodd;stroke-linecap:square;stroke-miterlimit:3" viewBox="0 0 42.515 56.691"><defs><linearGradient id="a" x1="0" x2="49.062" y1="58.865" y2="58.865" gradientTransform="scale(.86543 1.1555)" gradientUnits="userSpaceOnUse"><stop offset=".22" stop-color="#32d4f5"/><stop offset=".47" stop-color="#31d1f3"/><stop offset=".63" stop-color="#2ec9eb"/><stop offset=".77" stop-color="#29bade"/><stop offset=".89" stop-color="#22a5cb"/><stop offset="1" stop-color="#198ab3"/><stop offset="1" stop-color="#198ab3"/></linearGradient></defs><g transform="translate(-34 -34.003)"><title>Page-1</title><g transform="translate(34 -34.016)"><title>Virtual Network Gateway.18770</title><title>Icon-networking-63</title><title>Sheet.18772</title><path d="M40.26 95.25h-3.13v-9.68a18.218 18.249-180 0 0-4.68-12.31 15.02 15.045-180 0 0-11.47-5.24 15.02 15.045-180 0 0-11.6 5.24A17.967 17.997-180 0 0 4.7 85.57v9.68H2.16A2.195 2.199-180 0 0 0 97.42v25.12a2.195 2.199-180 0 0 2.16 2.17h38.1a2.226 2.23-180 0 0 2.2-2.17V97.42a2.226 2.23-180 0 0-2.2-2.17m-10.57 0H12.26v-9.83a9.971 9.988 0 0 1 2.73-6.76 7.87 7.884 0 0 1 5.89-2.7 7.965 7.978 0 0 1 5.93 2.7 10.003 10.02 0 0 1 1 1.36 9.407 9.423 0 0 1 1.92 5.37z" style="fill:url(#a);stroke:none;stroke-width:34;stroke-linecap:butt"/><g transform="translate(.815 -.66)"><title>Sheet.18773</title><path d="M39.54 95.91H1.38a2.07 2.073-180 0 0-1.38.53l40.92 28.27a2.1 2.104-180 0 0 .78-1.63V97.95a2.226 2.23-180 0 0-2.16-2.04" style="fill:#50e6ff;stroke:none;stroke-width:34;stroke-linecap:butt"/></g><g transform="translate(.063 -.66)"><title>Sheet.18774</title><path d="M2.19 95.91h38.13a2.195 2.199 0 0 1 1.42.53L.78 124.71a2.195 2.199 0 0 1-.78-1.63V97.95a2.258 2.261 0 0 1 2.19-2.04" style="fill:#fff;fill-opacity:.2;stroke:none;stroke-width:34;stroke-linecap:butt"/></g><g transform="translate(5.393 -2.386)"><title>Sheet.18775</title><path d="m12.1 103.7 3.77-3.77a.22.22 0 0 1 .282 0l3.728 3.77a.188.188 0 0 1 0 .314l-2.19-.004a.19.19-180 0 0-.188.189l-.002 4.841a.19.19 0 0 1-.188.188l-2.482-.008a.157.157 0 0 1-.188-.188l-.002-4.832a.22.22-180 0 0-.22-.188l-2.19-.002a.188.188 0 0 1-.125-.314zm7.75 17.21-3.73 3.74a.188.188 0 0 1-.282 0l-3.738-3.74a.188.188 0 0 1 0-.314l2.2-.006a.22.22-180 0 0 .22-.189v-4.861a.19.19 0 0 1 .188-.188l2.322-.002a.19.19 0 0 1 .188.188l-.008 4.872a.19.19-180 0 0 .188.188l2.202-.008a.2.201 0 0 1 .25.314zm-14.74-4.87v-2.2a.19.19-180 0 0-.188-.188L.19 113.65a.19.19 0 0 1-.188-.188L0 111.23a.188.188 0 0 1 .188-.283l4.732.003a.19.19-180 0 0 .188-.188l.002-2.202a.22.22 0 0 1 .345-.157l3.735 3.777a.19.19 0 0 1 0 .251L5.46 116.2a.22.22 0 0 1-.345-.157zm21.73-7.48v2.2a.19.19-180 0 0 .188.188l4.832.002s.22 0 .22.19v2.32a.22.22 0 0 1-.22.188l-4.83.002a.19.19-180 0 0-.188.188l-.002 2.202a.188.188 0 0 1-.314.157L22.8 112.43v-.25l3.73-3.77s.31-.03.31.15" style="fill:#fff;stroke:none;stroke-width:34;stroke-linecap:butt"/></g></g></g></svg>
